!!!COM: Landaeta, Juan Jose
!!!CDT: 1780-1814
!!!OTL: National Anthem, Venezuela
!!!ENC: Davis, Matthew J.
!!Vocal Line Only
**kern
*clefG2
*k[f#c#g#]
*A:
*M2/4
=1-
!Chorus
8ee
8ee
8ee
8ee
=2
4ee
8cc#
8cc#
=3
4dd
8b
8b
=4
4b
8r
8b
=5
4dd
8.b
16b
=6
4cc#
4a
=7
8b
8b
8g#
8g#
=8
4a
4r
=9
8ee
8ee
8ee
8ee
=10
4ee
8cc#
8cc#
=11
8dd
8ee
8ff#
8dd
=12
4b
8r
8b
=13
4ff
8.dd
16dd
=14
4ee
4cc#
=15
8dd
8dd
8b
8b
=16
4a
8r
16r
!Fine
==17
8cc#
=18
4cc#
8a
16r
16a
=19
4a
8e
16r
16cc#
=20
4cc#
8a
16r
16a
=21
4a
8e
16r
16dd
=22
4dd
8.b
16b
=23
4b
4r
=24
8e
8g#
8b
8g#
=25
4e
8r
8e
=26
4e
8f#
8g#
=27
4b
4a
=28
8e
8e
8f#
8g#
=29
4a
4r
=30
8a
8b
8a
8b
=31
4a
4dd
=32
8a
8b
8a
8gn
=33
4f#
8r
8f#
=34
4dd
8.cc#
16cc#
=35
4b
4b
=36
8b
8a
8g#
8f#
=37
4e
4r
=38
8b
8cc#
8dd
8dd#
=39
4ee
4cc#
=40
8a
8b
8cc#
8a
=41
4g#
4f#
=42
8dd
8cc#
8b
8a
=43
4g#
4r
=44
8e
8g#
8b
8dd
=45
4cc#
4a
=46
8b
8b
8g#
8g#
=47
2a
=48
8b
8cc#
8dd
8dd#
=49
4ee
4cc#
=50
8b
8dd
8e
16f#
16g#
=51
4a
4r
!D.C. al Fine
==|!
*-
